svgs/sharp-regular/franc-sign.svg

<svg xmlns="http://www.w3.org/2000/svg" viewBox="0 0 320 512"><!--! Font Awesome Pro 6.6.0 by @fontawesome - https://fontawesome.com License - https://fontawesome.com/license (Commercial License) Copyright 2024 Fonticons, Inc. --><path d="M72 32L48 32l0 24 0 136 0 48 0 80L0 320l0 48 48 0 0 88 0 24 48 0 0-24 0-88 128 0 0-48L96 320l0-80 192 0 0-48L96 192 96 80l200 0 24 0 0-48-24 0L72 32z"/></svg>

<svg xmlns="http://www.w3.org/2000/svg" viewBox="0 0 320 512"><!--! Font Awesome Pro 6.4.2 by @fontawesome - https://fontawesome.com License - https://fontawesome.com/license (Commercial License) Copyright 2023 Fonticons, Inc. --><path d="M72 32H48V56 192v48 80H0v48H48v88 24H96V456 368H224V320H96V240H288V192H96V80H296h24V32H296 72z"/></svg>
